pages/travel-inside/img/svg/why-we2.svg

<svg width="35" height="35" viewBox="0 0 35 35" xmlns="http://www.w3.org/2000/svg">
<circle cx="17.5" cy="17.5" r="17.5" fill="white"/>
<path d="M23.5233 13.1523C23.854 12.8176 24.0586 12.3582 24.0586 11.8515C24.0586 10.8306 23.228 10 22.2071 10C21.1862 10 20.3556 10.8306 20.3556 11.8515C20.3556 12.3582 20.5602 12.8176 20.8909 13.1524C20.2335 13.5045 19.4141 14.3264 19.4141 15.6172V16.5586C19.4141 16.8013 19.6109 16.9981 19.8535 16.9981H24.5606C24.8033 16.9981 25 16.8013 25 16.5586V15.6172C25 14.3277 24.1833 13.5059 23.5233 13.1523ZM22.2071 10.8789C22.7434 10.8789 23.1797 11.3153 23.1797 11.8515C23.1797 12.3879 22.7434 12.8242 22.2071 12.8242C21.6707 12.8242 21.2345 12.3879 21.2345 11.8515C21.2345 11.3153 21.6707 10.8789 22.2071 10.8789ZM24.1211 16.1192H20.293V15.6172C20.293 14.5773 21.1333 13.7032 22.2071 13.7032C23.2469 13.7032 24.1211 14.5435 24.1211 15.6172V16.1192Z" fill="black"/>
<path d="M11.6162 16.9981H16.7939C17.6851 16.9981 18.4101 16.273 18.4101 15.3818V12.0336L19.6936 10.7502C19.9697 10.474 19.7736 10 19.3828 10H11.6162C10.7234 10 10 10.7222 10 11.6162V15.3818C10 16.2747 10.7222 16.9981 11.6162 16.9981ZM10.8789 11.6162C10.8789 11.2077 11.2114 10.8789 11.6162 10.8789H18.3219L17.66 11.5408C17.5776 11.6232 17.5312 11.735 17.5312 11.8515V15.3818C17.5312 15.7884 17.2005 16.1192 16.7939 16.1192H11.6162C11.2077 16.1192 10.8789 15.7867 10.8789 15.3818V11.6162Z" fill="black"/>
<path d="M13.8891 15.2218C13.975 15.3077 14.0875 15.3506 14.1999 15.3506C14.3124 15.3506 14.4248 15.3078 14.5106 15.2218L15.7932 13.9393C16.3186 13.4142 16.3216 12.5637 15.797 12.0391C15.369 11.6111 14.7169 11.535 14.207 11.811C13.6986 11.5375 13.0482 11.6161 12.6177 12.0464C12.0928 12.5714 12.0911 13.4239 12.614 13.9467L13.8891 15.2218ZM13.2391 12.668C13.4215 12.4857 13.7165 12.484 13.8966 12.6642C13.979 12.7467 14.0908 12.7931 14.2073 12.7931H14.2074C14.3239 12.7931 14.4357 12.7467 14.5181 12.6643L14.5211 12.6613C14.7034 12.4821 14.9967 12.4818 15.1756 12.6605C15.3579 12.843 15.3519 13.1376 15.1718 13.3178L14.1999 14.2897L13.2355 13.3253C13.0552 13.1451 13.0569 12.8502 13.2391 12.668Z" fill="black"/>
<path d="M14.1091 21.1542C14.4398 20.8196 14.6445 20.3601 14.6445 19.8535C14.6445 18.8326 13.8139 18.002 12.7929 18.002C11.772 18.002 10.9414 18.8326 10.9414 19.8535C10.9414 20.3601 11.146 20.8196 11.4767 21.1542C10.8168 21.5079 10 22.3297 10 23.6192V24.5606C10 24.8033 10.1967 25 10.4395 25H15.1465C15.3891 25 15.586 24.8033 15.586 24.5606V23.6192C15.586 22.3284 14.7666 21.5065 14.1091 21.1542ZM12.7929 18.8809C13.3293 18.8809 13.7656 19.3172 13.7656 19.8535C13.7656 20.3899 13.3293 20.8261 12.7929 20.8261C12.2567 20.8261 11.8203 20.3899 11.8203 19.8535C11.8203 19.3172 12.2567 18.8809 12.7929 18.8809ZM14.7071 24.1211H10.8789V23.6192C10.8789 22.5455 11.7531 21.7051 12.7929 21.7051C13.8667 21.7051 14.7071 22.5792 14.7071 23.6192V24.1211Z" fill="black"/>
<path d="M23.3839 18.002H15.6174C15.2266 18.002 15.0304 18.476 15.3067 18.7521L16.59 20.0356V23.3838C16.59 24.275 17.3151 25 18.2063 25H23.384C24.2779 25 25.0002 24.2766 25.0002 23.3838V19.6182C25.0002 18.7242 24.2768 18.002 23.3839 18.002ZM24.1213 23.3838C24.1213 23.7887 23.7925 24.1211 23.3839 24.1211H18.2063C17.7997 24.1211 17.4689 23.7904 17.4689 23.3838V19.8535C17.4689 19.737 17.4226 19.6252 17.3402 19.5428L16.6783 18.8809H23.3839C23.7888 18.8809 24.1213 19.2096 24.1213 19.6182V23.3838Z" fill="black"/>
<path d="M20.7951 19.813C20.2851 19.537 19.6331 19.6131 19.2051 20.0411C18.6797 20.5664 18.6842 21.4169 19.2089 21.9413L20.4916 23.2238C20.5773 23.3096 20.6898 23.3525 20.8023 23.3525C20.9147 23.3525 21.0271 23.3097 21.113 23.2238L22.3881 21.9487C22.911 21.4258 22.9093 20.5733 22.3843 20.0483C21.9538 19.6181 21.3035 19.5395 20.7951 19.813ZM21.7667 21.3273L20.8023 22.2917L19.8303 21.3197C19.6501 21.1396 19.6442 20.8449 19.8266 20.6625C20.0054 20.4837 20.2987 20.4842 20.481 20.6633L20.484 20.6663C20.5664 20.7487 20.6782 20.795 20.7947 20.795H20.7948C20.9113 20.795 21.0231 20.7487 21.1055 20.6662C21.2857 20.4859 21.5806 20.4876 21.763 20.6699C21.9452 20.8521 21.9469 21.147 21.7667 21.3273Z" fill="black"/>
</svg>

<svg xmlns="http://www.w3.org/2000/svg" width="35" height="35"><circle cx="17.5" cy="17.5" r="17.5" fill="#fff"/><path d="M23.52 13.15A1.85 1.85 0 0022.21 10a1.85 1.85 0 00-1.32 3.15 2.8 2.8 0 00-1.48 2.47v.94c0 .24.2.44.44.44h4.71c.24 0 .44-.2.44-.44v-.94a2.8 2.8 0 00-1.48-2.47zm-1.31-2.27a.97.97 0 110 1.95.97.97 0 010-1.95zm1.91 5.24H20.3v-.5a1.91 1.91 0 013.83 0v.5zM11.62 17h5.17c.9 0 1.62-.73 1.62-1.62v-3.35l1.28-1.28a.44.44 0 00-.3-.75h-7.77c-.9 0-1.62.72-1.62 1.62v3.76c0 .9.72 1.62 1.62 1.62zm-.74-5.38c0-.41.33-.74.74-.74h6.7l-.66.66a.44.44 0 00-.13.31v3.53c0 .4-.33.74-.74.74h-5.17a.74.74 0 01-.74-.74v-3.76z"/><path d="M13.89 15.22a.44.44 0 00.62 0l1.28-1.28a1.34 1.34 0 00-1.58-2.13 1.35 1.35 0 00-1.6 2.14l1.28 1.27zm-.65-2.55a.47.47 0 01.66 0 .44.44 0 00.62 0 .47.47 0 01.66 0c.18.17.17.47 0 .65l-.98.97-.96-.96a.47.47 0 010-.66zM14.1 21.15A1.85 1.85 0 0012.8 18a1.85 1.85 0 00-1.32 3.15A2.8 2.8 0 0010 23.62v.94c0 .24.2.44.44.44h4.7c.25 0 .45-.2.45-.44v-.94a2.8 2.8 0 00-1.48-2.47zm-1.3-2.27a.97.97 0 110 1.95.97.97 0 010-1.95zm1.9 5.24h-3.82v-.5a1.91 1.91 0 013.83 0v.5zM23.38 18h-7.76c-.4 0-.59.48-.31.75l1.28 1.29v3.34c0 .9.73 1.62 1.62 1.62h5.17c.9 0 1.62-.72 1.62-1.62v-3.76c0-.9-.72-1.62-1.62-1.62zm.74 5.38c0 .4-.33.74-.74.74h-5.17a.74.74 0 01-.74-.74v-3.53a.44.44 0 00-.13-.3l-.66-.67h6.7c.4 0 .74.33.74.74v3.76z"/><path d="M20.8 19.81a1.34 1.34 0 00-1.59 2.13l1.28 1.28a.44.44 0 00.62 0l1.28-1.27a1.35 1.35 0 00-1.6-2.14zm.97 1.52l-.97.96-.97-.97a.47.47 0 010-.66.47.47 0 01.65 0c.09.09.2.14.31.14.12 0 .23-.05.32-.13a.47.47 0 01.65 0c.19.18.19.48 0 .66z"/></svg>
